assets/TfB-logo-green-plain.svg

<svg width="64" height="61" viewBox="0 0 64 61" fill="none" xmlns="http://www.w3.org/2000/svg">
<path d="M31.1653 60.4386L32.1991 60.4393C32.2393 60.4584 32.2391 60.4772 32.1985 60.4956H31.1657C31.1252 60.4769 31.125 60.4579 31.1653 60.4386Z" fill="white"/>
<path d="M0 28.8586C0.109246 28.7207 0.0103732 28.5363 0.115043 28.3974C0.133885 28.6487 0.116457 28.9014 0.063296 29.1478C0.0411357 29.1849 0.0200371 29.1844 0 29.1462V28.8586Z" fill="white"/>
<path d="M0.11575 32.5414C0.0103584 32.4025 0.10976 32.2177 0 32.0798V31.7922C0.0201115 31.7541 0.041984 31.7532 0.0656177 31.7894C0.116137 32.0367 0.133 32.2896 0.11575 32.5414Z" fill="white"/>
<path d="M63.3129 30.8729L63.313 30.0656C63.3309 30.0259 63.348 30.0262 63.3642 30.0665V30.8718C63.3481 30.9121 63.331 30.9125 63.3129 30.8729Z" fill="white"/>
<path d="M63.3642 30.0665L63.3386 30.065L63.313 30.0656V29.7204C63.3301 29.7192 63.3472 29.7195 63.3642 29.7214L63.3642 30.0665Z" fill="white"/>
<path d="M63.3128 30.8729C63.33 30.8739 63.3471 30.8735 63.3642 30.8718V31.2169L63.3384 31.2184L63.3125 31.2179L63.3128 30.8729Z" fill="white"/>
<path d="M30.0085 0.548615C30.0083 0.532441 30.0093 0.516275 30.0114 0.500246H30.3152C30.3562 0.519772 30.3548 0.536091 30.3111 0.549203L30.0085 0.548615Z" fill="white"/>
<path d="M31.0442 0.500238C30.9519 0.578931 30.8405 0.553206 30.7334 0.551308C30.712 0.537125 30.7059 0.52483 30.7151 0.514422C30.718 0.510367 30.7218 0.506999 30.7262 0.504551C30.7306 0.502103 30.7354 0.500631 30.7404 0.500238H31.0442Z" fill="white"/>
<path d="M32.631 0.551048C32.5239 0.55328 32.4124 0.578871 32.32 0.500238H32.6237C32.6481 0.508617 32.6572 0.518916 32.6513 0.531202C32.645 0.544418 32.6383 0.551048 32.631 0.551048Z" fill="white"/>
<path d="M33.3528 0.500238C33.3556 0.516015 33.3567 0.532043 33.3561 0.548056L33.0531 0.549381C33.0094 0.536135 33.008 0.519764 33.049 0.500268L33.3528 0.500238Z" fill="white"/>
<path d="M31.1653 60.4386C31.1659 60.4576 31.166 60.4766 31.1657 60.4956H30.862L30.8619 60.4371C30.9622 60.4187 31.0651 60.4192 31.1653 60.4386Z" fill="white"/>
<path d="M32.1985 60.4956C32.1984 60.4768 32.1985 60.4581 32.199 60.4393C32.2991 60.4191 32.4021 60.4184 32.5024 60.4373L32.5023 60.4956H32.1985Z" fill="white"/>
<path d="M30.7404 0.500238C30.7387 0.517354 30.7364 0.534389 30.7335 0.551346L30.493 0.550728C30.455 0.5308 30.4565 0.51397 30.4974 0.500238H30.7404Z" fill="white"/>
<path d="M32.631 0.551048C32.6281 0.534181 32.6257 0.517244 32.6237 0.500238H32.8668C32.9073 0.513633 32.9089 0.530309 32.8715 0.550267L32.631 0.551048Z" fill="white"/>
<path d="M0.0625817 29.3203C0.0688845 29.4031 0.0810362 29.4874 0 29.5488V29.3187C0.0219222 29.2798 0.0427828 29.2803 0.0625817 29.3203Z" fill="white"/>
<path d="M0 31.3895C0.0820705 31.4512 0.0685422 31.5359 0.0615473 31.619C0.0414756 31.658 0.0209598 31.6582 0 31.6196V31.3895Z" fill="white"/>
<path d="M30.4974 0.500238C30.4975 0.517186 30.4961 0.534106 30.4931 0.550787L30.3111 0.54921C30.3135 0.532992 30.3149 0.516634 30.3152 0.500238H30.4974Z" fill="white"/>
<path d="M32.8715 0.550267C32.8686 0.533735 32.867 0.51701 32.8668 0.500238H33.049C33.0492 0.516698 33.0505 0.533124 33.0531 0.549388L32.8715 0.550267Z" fill="white"/>
<path d="M0.0625817 29.3202L0 29.3187V29.1462L0.063296 29.1478L0.0625817 29.3202Z" fill="white"/>
<path d="M0 31.6196L0.0615399 31.619L0.0656103 31.7894L0 31.7922V31.6196Z" fill="white"/>
<path d="M63.3102 28.4591C63.2852 26.9944 63.099 25.5369 62.7549 24.1129C62.1595 21.4868 61.197 18.9578 59.8957 16.6005C59.2618 15.4515 58.5535 14.3452 57.7753 13.2887C56.699 11.8304 55.4992 10.4675 54.189 9.21511C53.423 8.4882 52.6192 7.80212 51.7811 7.1597C50.2429 5.96119 48.5948 4.91099 46.8587 4.02318C44.8063 2.96365 42.6463 2.12696 40.4156 1.52743C38.1132 0.878342 35.7337 0.542518 33.3415 0.529021H32.6329C32.5288 0.515329 32.4189 0.558593 32.32 0.5H31.044C30.9433 0.558601 30.8329 0.515337 30.7276 0.529021H30.0173C29.7743 0.527927 29.532 0.551472 29.2908 0.552573C28.0193 0.569793 26.7522 0.703252 25.505 0.95128C21.5389 1.68668 17.7437 3.15147 14.3119 5.27131C12.2897 6.5184 10.4185 7.99505 8.73538 9.67186C8.37329 10.0328 8.00715 10.3915 7.66472 10.7677C6.5385 12.0008 5.51494 13.3238 4.60429 14.7236C3.63529 16.209 2.80373 17.7796 2.11996 19.416C1.47994 20.9527 0.974792 22.5422 0.610235 24.1665C0.271177 25.5623 0.0868999 26.9913 0.0607362 28.4274C0.0681641 28.6581 0.0579147 28.889 0.0300779 29.118V29.2971C0.0179336 29.3809 0.0590024 29.4702 0 29.5485V31.3892C0.0590024 31.4692 0.0179336 31.5596 0.0300779 31.6445V31.8241C0.0587803 32.0539 0.0690325 32.2855 0.0607362 32.5169C0.0509062 32.7184 0.0850322 32.9183 0.0879194 33.1188C0.136111 34.3434 0.310162 35.5598 0.607325 36.7488C1.32283 39.9477 2.57888 43.0011 4.32141 45.7776C6.01409 48.4689 8.1154 50.8803 10.5499 52.9252C13.5977 55.4967 17.0979 57.478 20.8713 58.7678C24.0922 59.9005 27.4829 60.475 30.8971 60.4667H32.4756C33.0292 60.4108 33.5868 60.4262 34.1415 60.4174C35.6548 60.368 37.1598 60.1722 38.6353 59.8325C41.7252 59.1783 44.7047 58.0818 47.4816 56.5771C49.8183 55.3048 51.9903 53.751 53.949 51.9504C54.7467 51.2076 55.5027 50.4212 56.2135 49.5949C57.6359 47.9758 58.8753 46.2047 59.9091 44.3137C60.9528 42.4179 61.7788 40.4101 62.3714 38.3287C62.7294 37.0846 62.9979 35.8164 63.1748 34.5339C63.3025 33.4215 63.3556 32.3017 63.3339 31.1822V29.75C63.3299 29.3196 63.3119 28.8885 63.3102 28.4591ZM31.5461 53.2314C18.2042 53.1608 7.64387 42.8563 7.64098 30.4707C7.63866 18.026 18.295 7.70517 31.6912 7.69968C45.1066 7.71009 55.7548 18.0589 55.7328 30.508C55.7109 42.9286 45.0407 53.3026 31.5461 53.2314Z" fill="#00A64F"/>
<path d="M42.7069 34.2168C42.4459 33.2438 41.9528 32.3487 41.2697 31.6083C40.5866 30.8678 39.7341 30.3042 38.7852 29.9658C38.1006 29.6977 37.3902 29.5008 36.6653 29.3781C36.5826 29.3639 36.5051 29.3579 36.5016 29.2505C36.4987 29.1503 36.5288 29.1005 36.6445 29.0736C36.9093 29.0134 37.1709 28.9396 37.4282 28.8524C38.3464 28.5847 39.1922 28.1126 39.9021 27.4717C40.612 26.8307 41.1677 26.0374 41.5275 25.1512C42.0722 23.7449 42.1974 22.2108 41.8879 20.7348C41.7091 19.8483 41.329 19.0148 40.777 18.2986C40.225 17.5823 39.5158 17.0024 38.7042 16.6037C37.8806 16.162 37.0012 15.8336 36.0898 15.6272C34.4213 15.2555 32.7177 15.0647 31.0083 15.0582C29.7531 15.0336 28.4985 15.073 27.2445 15.1206C26.5168 15.148 25.7892 15.1924 25.0627 15.2455C23.8827 15.332 22.7079 15.4673 21.5366 15.6283C21.1577 15.6804 21.1566 15.6743 21.1566 16.0456V44.2239C21.16 44.2908 21.1596 44.3579 21.1554 44.4249C21.1398 44.5722 21.1907 44.6472 21.359 44.679C21.9646 44.7934 22.572 44.8942 23.1851 44.9588C24.5537 45.1029 25.9269 45.1872 27.3024 45.2354C28.4962 45.277 29.6913 45.2442 30.8857 45.2568C32.1705 45.267 33.453 45.1488 34.7143 44.9041C36.3406 44.6235 37.8993 44.038 39.3081 43.1783C40.9847 42.1996 42.2148 40.6072 42.7382 38.7378C43.1421 37.2564 43.1313 35.6925 42.7069 34.2168ZM27.0247 20.2496C27.0247 19.967 27.0265 19.9686 27.3128 19.9396C28.6722 19.8097 30.0391 19.7754 31.4034 19.8372C32.2832 19.8471 33.1513 20.0407 33.9519 20.4057C34.5054 20.6372 34.9798 21.0242 35.3179 21.5199C35.656 22.0155 35.8431 22.5985 35.8567 23.1983C35.8865 23.6097 35.8529 24.0233 35.7572 24.4245C35.59 25.0698 35.2236 25.6461 34.7102 26.0713C33.8729 26.7714 32.8993 27.2898 31.8511 27.5938C31.4185 27.697 30.9752 27.7485 30.5305 27.7472C29.4396 27.8052 28.347 27.8135 27.2549 27.8042C27.0294 27.802 27.0253 27.7992 27.0253 27.5763C27.0236 26.3408 27.0234 25.1054 27.0247 23.8702V20.2496ZM36.6636 36.9245C36.5708 37.4755 36.3557 37.9986 36.0341 38.4555C35.7125 38.9123 35.2925 39.2912 34.8051 39.5643C34.0145 40.0292 33.1346 40.3216 32.223 40.4225C31.398 40.5114 30.5669 40.5307 29.7387 40.48C29.0208 40.4608 28.303 40.434 27.5875 40.3672C27.0247 40.3146 27.0247 40.3184 27.0247 39.8025V32.501C27.0247 32.4336 27.027 32.3668 27.0247 32.2994C27.023 32.2184 27.0577 32.174 27.1485 32.1767C27.1884 32.1784 27.2295 32.1757 27.27 32.1762C28.5951 32.18 29.9215 32.1494 31.2466 32.2019C32.1668 32.2057 33.0818 32.3403 33.964 32.6017C34.7008 32.8258 35.3661 33.239 35.8937 33.8C36.3591 34.3254 36.6365 34.9907 36.6821 35.6912C36.7283 36.1014 36.722 36.5158 36.6636 36.9245Z" fill="#00A64F"/>
</svg>

<svg xmlns="http://www.w3.org/2000/svg" width="64" height="61" fill="none" viewBox="0 0 64 61"><path fill="#fff" d="M31.165 60.439H32.2q.06.03 0 .057h-1.033q-.06-.03 0-.057M0 28.859c.11-.138.01-.323.115-.462q.028.38-.052.75-.033.056-.063 0zM.116 32.541C.01 32.403.11 32.218 0 32.08v-.288q.03-.057.066-.003.075.373.05.752M63.313 30.873v-.807q.027-.06.051 0v.806q-.024.06-.051 0"/><path fill="#fff" d="m63.364 30.067-.025-.002h-.026v-.345a.3.3 0 0 1 .051.001zM63.313 30.873l.051-.001v.345l-.026.001h-.026zM30.009.549q0-.025.002-.049h.304q.062.03-.004.05zM31.044.5c-.092.079-.204.053-.31.051q-.033-.02-.019-.037A.03.03 0 0 1 30.74.5zM32.631.551c-.107.002-.219.028-.311-.05h.304q.036.012.027.03-.01.02-.02.02M33.353.5a.2.2 0 0 1 .003.048l-.303.001Q32.987.53 33.05.5zM31.165 60.439v.057h-.303v-.059a.8.8 0 0 1 .303.002M32.199 60.496v-.057q.151-.03.303-.002v.059z"/><path fill="#fff" d="m30.74.5-.006.051h-.241q-.057-.03.004-.05zM32.631.551l-.007-.05h.243q.06.02.005.05zM.063 29.32c.006.083.018.167-.063.229v-.23q.033-.06.063.001M0 31.39c.082.061.069.146.062.229q-.03.06-.062 0z"/><path fill="#fff" d="M30.497.5a.3.3 0 0 1-.004.05h-.182l.004-.05zM32.872.55a.3.3 0 0 1-.005-.05h.182q0 .025.004.05zM.063 29.32 0 29.32v-.173l.063.002zM0 31.62l.062-.001.004.17-.066.003z"/><path fill="#00A64F" d="M63.31 28.46a20 20 0 0 0-.555-4.347 28.7 28.7 0 0 0-2.86-7.512 30 30 0 0 0-2.12-3.312 31.6 31.6 0 0 0-3.586-4.074 30 30 0 0 0-2.408-2.055 31 31 0 0 0-4.922-3.137 32.4 32.4 0 0 0-6.443-2.496A26.6 26.6 0 0 0 33.342.53h-.71C32.53.515 32.42.559 32.32.5h-1.276c-.1.059-.211.015-.316.029h-.71c-.244-.001-.486.022-.727.024-1.272.017-2.539.15-3.786.398a32.6 32.6 0 0 0-11.193 4.32 30.8 30.8 0 0 0-5.577 4.4c-.362.362-.728.72-1.07 1.097a30.7 30.7 0 0 0-3.06 3.956A28.707 28.707 0 0 0 .61 24.167a19.6 19.6 0 0 0-.55 4.26q.01.347-.03.691v.18c-.013.083.028.172-.031.25v1.841c.059.08.018.17.03.256v.18q.044.344.03.692c-.01.201.025.401.028.602.048 1.224.222 2.44.52 3.63a28.8 28.8 0 0 0 3.713 9.029 30.6 30.6 0 0 0 6.229 7.147 32.1 32.1 0 0 0 10.321 5.843 30 30 0 0 0 10.026 1.699h1.579c.553-.056 1.11-.04 1.666-.05a23.4 23.4 0 0 0 4.493-.584c3.09-.655 6.07-1.751 8.847-3.256a32.6 32.6 0 0 0 6.467-4.627 30 30 0 0 0 2.265-2.355 29.3 29.3 0 0 0 3.695-5.281 28.7 28.7 0 0 0 2.462-5.985c.358-1.244.627-2.513.804-3.795a25 25 0 0 0 .159-3.352V29.75c-.004-.43-.022-.861-.024-1.29M31.546 53.23c-13.342-.07-23.902-10.375-23.905-22.76C7.639 18.026 18.295 7.705 31.691 7.7c13.416.01 24.064 10.359 24.042 22.808-.022 12.42-10.692 22.795-24.187 22.723"/><path fill="#00A64F" d="M42.707 34.217a6.23 6.23 0 0 0-3.922-4.251 10.7 10.7 0 0 0-2.12-.588c-.082-.014-.16-.02-.163-.128-.003-.1.027-.15.142-.176q.398-.09.784-.222a6.34 6.34 0 0 0 4.1-3.7c.544-1.407.67-2.941.36-4.417a5.9 5.9 0 0 0-3.184-4.131 10.4 10.4 0 0 0-2.614-.977 23.8 23.8 0 0 0-5.082-.569c-1.255-.024-2.51.015-3.764.063q-1.091.043-2.181.124c-1.18.087-2.355.222-3.526.383-.38.052-.38.046-.38.418v28.178q.005.1-.002.2c-.015.148.036.223.204.255.606.114 1.213.215 1.826.28 1.369.144 2.742.228 4.117.276 1.194.042 2.39.01 3.584.022 1.284.01 2.567-.108 3.828-.353a13.1 13.1 0 0 0 4.594-1.726 7.48 7.48 0 0 0 3.43-4.44 8.4 8.4 0 0 0-.031-4.521M27.025 20.25c0-.283.002-.281.288-.31a29 29 0 0 1 4.09-.103c.88.01 1.748.204 2.549.569a3.1 3.1 0 0 1 1.905 2.792 4 4 0 0 1-.1 1.226 3.17 3.17 0 0 1-1.047 1.647 7.9 7.9 0 0 1-2.859 1.523 5.6 5.6 0 0 1-1.32.153c-1.091.058-2.184.067-3.276.057-.226-.002-.23-.005-.23-.228q-.002-1.852 0-3.706zm9.639 16.675a3.74 3.74 0 0 1-1.859 2.64c-.79.464-1.67.757-2.582.858-.825.088-1.656.108-2.484.057a33 33 0 0 1-2.152-.113c-.562-.052-.562-.049-.562-.564V32.5q.002-.1 0-.202c-.002-.08.033-.125.123-.122h.122c1.325.003 2.652-.028 3.977.025.92.004 1.835.138 2.717.4a4.4 4.4 0 0 1 1.93 1.198c.465.525.742 1.19.788 1.891.046.41.04.825-.018 1.233"/></svg>
